assets/Love hotel/Flat/love_hotel_flat.svg

<svg width="32" height="32" viewBox="0 0 32 32" fill="none" xmlns="http://www.w3.org/2000/svg">
<path d="M28.99 10.08H2.98999V29.99H28.99V10.08Z" fill="#FBB8AB"/>
<path d="M9 11H10V30H9V11Z" fill="#FF8687"/>
<path d="M22 11H23V30H22V11Z" fill="#FF8687"/>
<path d="M22 30H10V8.63086C10 5.51933 12.6821 3 15.9947 3C19.3072 3 21.9893 5.51933 21.9893 8.63086V30H22Z" fill="#FBB8AB"/>
<path d="M20.9889 30H11V22.08C11 21.49 11.5327 21 12.1987 21H19.8013C20.4562 21 21 21.48 21 22.08V30H20.9889Z" fill="#FF8687"/>
<path d="M5.61 18C5.27 18 5 17.73 5 17.39V15.5C5 14.67 5.67 14 6.5 14C7.33 14 8 14.67 8 15.5V17.39C8 17.72 7.73 18 7.39 18H5.61ZM5.61 25C5.27 25 5 24.73 5 24.39V22.5C5 21.67 5.67 21 6.5 21C7.33 21 8 21.67 8 22.5V24.39C8 24.72 7.73 25 7.39 25H5.61ZM24 17.39C24 17.73 24.27 18 24.61 18H26.39C26.73 18 27 17.72 27 17.39V15.5C27 14.67 26.33 14 25.5 14C24.67 14 24 14.67 24 15.5V17.39ZM24.61 25C24.27 25 24 24.73 24 24.39V22.5C24 21.67 24.67 21 25.5 21C26.33 21 27 21.67 27 22.5V24.39C27 24.72 26.73 25 26.39 25H24.61ZM12.44 29.03H15.1C15.35 29.03 15.55 28.83 15.54 28.58V22C15.54 21.76 15.34 21.56 15.1 21.56H12.44C12.2 21.56 12 21.76 12 22V28.59C12 28.83 12.2 29.03 12.44 29.03ZM20 22V28.59C20 28.83 19.8 29.03 19.56 29.02H17C16.76 29.02 16.56 28.82 16.56 28.58V22C16.56 21.76 16.76 21.56 17 21.56H19.56C19.8 21.56 20 21.76 20 22Z" fill="#83CBFF"/>
<path d="M23.26 7.998H26.66C28.5 7.998 29.99 9.5025 30 11.338C30 11.6991 29.7 12 29.34 12H22.51C22.45 12 22.41 11.9799 22.39 11.9599C21.95 11.8897 21.61 11.5286 21.61 11.0772V9.46239C21.61 6.36309 19.09 3.83551 16 3.83551C12.91 3.83551 10.39 6.36309 10.39 9.46239V11.0772C10.39 11.5386 10.05 11.8997 9.60999 11.9599C9.58999 11.99 9.55 12 9.49 12H2.66C2.3 12 2 11.6991 2 11.338C2 9.49247 3.5 7.98796 5.34 7.98796H8.74C8.74 7.98295 8.7425 7.97543 8.745 7.9679C8.7475 7.96038 8.75 7.95286 8.75 7.94784C9.42 4.55767 12.41 2 16 2C19.59 2 22.58 4.5677 23.25 7.94784C23.25 7.95787 23.2525 7.9654 23.255 7.97292C23.2575 7.98044 23.26 7.98797 23.26 7.998ZM17.491 12H17.5109C17.7902 12 18.0096 12.22 17.9997 12.49V16.51C17.9997 16.78 17.7802 17 17.5109 17H17.491C17.2217 17 17.0022 16.78 17.0022 16.51V15.01H14.9974V16.51C14.9974 16.78 14.778 17 14.5087 17H14.4887C14.2194 17 14 16.78 14 16.51V12.49C14 12.22 14.2194 12 14.4887 12H14.5087C14.778 12 14.9974 12.22 14.9974 12.49V14H17.0022V12.49C17.0022 12.22 17.2217 12 17.491 12ZM21.44 21.19C21.435 21.18 21.435 21.1725 21.435 21.165C21.435 21.1575 21.435 21.15 21.43 21.14C20.34 19.28 18.32 18.02 16 18.02C13.68 18.02 11.67 19.28 10.57 21.14C10.57 21.15 10.57 21.16 10.56 21.17C10.52 21.25 10.49 21.33 10.49 21.43C10.49 21.73 10.74 21.98 11.04 21.98C11.23 21.98 11.39 21.88 11.49 21.73H11.69C11.79 21.88 11.95 21.98 12.14 21.98C12.33 21.98 12.49 21.88 12.59 21.73H12.79C12.89 21.88 13.05 21.98 13.24 21.98C13.43 21.98 13.59 21.88 13.69 21.73H13.89C13.99 21.88 14.15 21.98 14.34 21.98C14.53 21.98 14.69 21.88 14.79 21.73H14.99C15.09 21.88 15.25 21.98 15.44 21.98C15.63 21.98 15.79 21.88 15.89 21.73H16.09C16.19 21.88 16.35 21.98 16.54 21.98C16.73 21.98 16.89 21.88 16.99 21.73H17.19C17.29 21.88 17.45 21.98 17.64 21.98C17.83 21.98 17.99 21.88 18.09 21.73H18.29C18.39 21.88 18.55 21.98 18.74 21.98C18.93 21.98 19.09 21.88 19.19 21.73H19.39C19.49 21.88 19.65 21.98 19.84 21.98C20.03 21.98 20.19 21.88 20.29 21.73H20.49C20.59 21.88 20.75 21.98 20.94 21.98C21.24 21.98 21.49 21.73 21.49 21.43C21.49 21.34 21.47 21.26 21.44 21.19ZM19 7.52304V7.49298C19 6.66132 18.3131 6 17.4545 6C17.3333 6 17.202 6.02004 17.0909 6.0501C16.6667 6.13026 16.303 6.4008 16.101 6.76152C16.0808 6.8016 16.0404 6.82164 16 6.82164C15.9596 6.82164 15.9293 6.8016 15.899 6.76152C15.697 6.4008 15.3333 6.13026 14.9091 6.0501C14.798 6.02004 14.6667 6 14.5455 6C13.697 6 13.0101 6.66132 13 7.49298V7.52304C13 7.99399 13.1414 8.43486 13.3939 8.79559C14.0202 9.62725 14.798 10.3487 15.6869 10.9198C15.7778 10.9699 15.8889 11 16 11C16.1111 11 16.2222 10.98 16.3131 10.9198C17.2121 10.3587 17.9899 9.62725 18.6061 8.79559C18.8586 8.43486 19 7.99399 19 7.52304Z" fill="#F8312F"/>
</svg>

<svg xmlns="http://www.w3.org/2000/svg" width="32" height="32" fill="none"><path fill="#FBB8AB" d="M28.99 10.08h-26v19.91h26V10.08Z"/><path fill="#FF8687" d="M9 11h1v19H9V11ZM22 11h1v19h-1V11Z"/><path fill="#FBB8AB" d="M22 30H10V8.63C10 5.52 12.682 3 15.995 3c3.312 0 5.994 2.52 5.994 5.63V30H22Z"/><path fill="#FF8687" d="M20.989 30H11v-7.92c0-.59.533-1.08 1.199-1.08H19.8c.655 0 1.199.48 1.199 1.08V30h-.011Z"/><path fill="#83CBFF" d="M5.61 18c-.34 0-.61-.27-.61-.61V15.5c0-.83.67-1.5 1.5-1.5s1.5.67 1.5 1.5v1.89c0 .33-.27.61-.61.61H5.61Zm0 7c-.34 0-.61-.27-.61-.61V22.5c0-.83.67-1.5 1.5-1.5s1.5.67 1.5 1.5v1.89c0 .33-.27.61-.61.61H5.61ZM24 17.39c0 .34.27.61.61.61h1.78c.34 0 .61-.28.61-.61V15.5c0-.83-.67-1.5-1.5-1.5s-1.5.67-1.5 1.5v1.89Zm.61 7.61c-.34 0-.61-.27-.61-.61V22.5c0-.83.67-1.5 1.5-1.5s1.5.67 1.5 1.5v1.89c0 .33-.27.61-.61.61h-1.78Zm-12.17 4.03h2.66c.25 0 .45-.2.44-.45V22c0-.24-.2-.44-.44-.44h-2.66c-.24 0-.44.2-.44.44v6.59c0 .24.2.44.44.44ZM20 22v6.59c0 .24-.2.44-.44.43H17c-.24 0-.44-.2-.44-.44V22c0-.24.2-.44.44-.44h2.56c.24 0 .44.2.44.44Z"/><path fill="#F8312F" d="M23.26 7.998h3.4c1.84 0 3.33 1.504 3.34 3.34 0 .361-.3.662-.66.662h-6.83c-.06 0-.1-.02-.12-.04-.44-.07-.78-.431-.78-.883V9.462c0-3.099-2.52-5.626-5.61-5.626-3.09 0-5.61 2.527-5.61 5.626v1.615c0 .462-.34.823-.78.883-.02.03-.06.04-.12.04H2.66c-.36 0-.66-.3-.66-.662 0-1.846 1.5-3.35 3.34-3.35h3.4c0-.005.002-.013.005-.02a7.392 7.392 0 0 1 14.51.005.074.074 0 0 1 .005.025ZM17.491 12h.02c.28 0 .499.22.489.49v4.02c0 .27-.22.49-.49.49h-.019a.49.49 0 0 1-.489-.49v-1.5h-2.005v1.5c0 .27-.219.49-.488.49h-.02a.49.49 0 0 1-.489-.49v-4.02c0-.27.22-.49.489-.49h.02c.269 0 .488.22.488.49V14h2.005v-1.51c0-.27.22-.49.489-.49Zm3.949 9.19c-.005-.01-.005-.018-.005-.025 0-.008 0-.015-.005-.025A6.29 6.29 0 0 0 16 18.02c-2.32 0-4.33 1.26-5.43 3.12 0 .01 0 .02-.01.03a.56.56 0 0 0-.07.26c0 .3.25.55.55.55.19 0 .35-.1.45-.25h.2c.1.15.26.25.45.25s.35-.1.45-.25h.2c.1.15.26.25.45.25s.35-.1.45-.25h.2c.1.15.26.25.45.25s.35-.1.45-.25h.2c.1.15.26.25.45.25s.35-.1.45-.25h.2c.1.15.26.25.45.25s.35-.1.45-.25h.2c.1.15.26.25.45.25s.35-.1.45-.25h.2c.1.15.26.25.45.25s.35-.1.45-.25h.2c.1.15.26.25.45.25s.35-.1.45-.25h.2c.1.15.26.25.45.25a.555.555 0 0 0 .5-.79ZM19 7.523v-.03C19 6.661 18.313 6 17.454 6c-.12 0-.252.02-.363.05-.424.08-.788.35-.99.712-.02.04-.06.06-.101.06-.04 0-.07-.02-.101-.06a1.452 1.452 0 0 0-.99-.712 1.447 1.447 0 0 0-.364-.05c-.848 0-1.535.661-1.545 1.493v.03c0 .471.141.912.394 1.273a8.88 8.88 0 0 0 2.293 2.124c.09.05.202.08.313.08.111 0 .222-.02.313-.08a8.41 8.41 0 0 0 2.293-2.124c.253-.361.394-.802.394-1.273Z"/></svg>
